X: 1601
T: Joe Cashmere's Mazurka
B: australian traditional tunes wiki
M:3/4
L:1/8
R: Mazurka
Q: 1/4=100
K:G
V:1 
D>G||"G"[G2B2][G2B2] (3dBG|"G"[G2B2][G2B2] (3dBG|"D"[D2A2][D2A2](3cBA|"G"[G,2G2][G,2G2]D>G|
"G"[G2B2][G2B2] (3dBG|"G"[G2B2][G2B2] (3dBG|"D"[D2A2][D2A2](3AdA|"G"G2G2B>d|
"C"e2e>f g>e|"G"d2d2G>B|"D"d2d>B A>d|"G"B2BA GB|
"C"e2e>f g>e|"G"d2d2G>B|"D"d>e d>c B>A|"G"G4||
% abcbook-tune_id 6342d53a85b631a2597738e3


% abcbook-boost 0
% abcbook-tablature 
% abcbook-transpose 
% abcbook-lastupdated 1665324373315
% abcbook-soundfonts 
% abcbook-repeats 1
% NFF Book 2014

